cutejava-front/src/assets/icons/svg/plmt.svg

<?xml version="1.0" standalone="no"?><!DOCTYPE svg PUBLIC "-//W3C//DTD SVG 1.1//EN" "http://www.w3.org/Graphics/SVG/1.1/DTD/svg11.dtd"><svg t="1608282929586" class="icon" viewBox="0 0 1024 1024" version="1.1" xmlns="http://www.w3.org/2000/svg" p-id="3196" xmlns:xlink="http://www.w3.org/1999/xlink" width="200" height="200"><defs><style type="text/css"></style></defs><path d="M940.31828 1023.55957H81.47957a61.660215 61.660215 0 0 1-59.458065-61.660215V148.424946a61.660215 61.660215 0 0 1 61.660215-61.660215h858.83871a61.660215 61.660215 0 0 1 61.660215 61.660215v813.474409a61.660215 61.660215 0 0 1-63.862365 61.660215z m-841.221506-79.277419h823.604301V166.042151H99.096774z" p-id="3197"></path><path d="M244.43871 0m22.021505 0l55.494194 0q22.021505 0 22.021505 22.021505l0 217.572473q0 22.021505-22.021505 22.021506l-55.494194 0q-22.021505 0-22.021505-22.021506l0-217.572473q0-22.021505 22.021505-22.021505Z" p-id="3198"></path><path d="M669.013333 0m22.021506 0l55.494193 0q22.021505 0 22.021506 22.021505l0 217.572473q0 22.021505-22.021506 22.021506l-55.494193 0q-22.021505 0-22.021506-22.021506l0-217.572473q0-22.021505 22.021506-22.021505Z" p-id="3199"></path><path d="M785.727312 414.004301a137.854624 137.854624 0 0 1-30.389678 152.388817 140.056774 140.056774 0 0 1-167.36344 22.021506l-36.555699 40.51957 27.747096 27.306666 15.415054-14.534193a22.021505 22.021505 0 0 1 30.389678 0l132.129032 132.129032a21.140645 21.140645 0 0 1 0 30.389677l-60.779355 60.338925a22.021505 22.021505 0 0 1-30.389677 0l-132.129033-132.129032a21.140645 21.140645 0 0 1 0-30.389678l16.736344-16.295914-25.985376-25.985376-187.182796 199.514839a44.043011 44.043011 0 0 1-61.219785 0l-14.974623-14.974624a44.043011 44.043011 0 0 1 0-60.338925l209.644731-176.172043-140.497204-136.973763h-44.043011L237.391828 389.340215l40.51957-40.96 83.68172 51.089893v44.04301l139.616344 140.497205 40.96-33.913119a137.414194 137.414194 0 0 1 13.653334-179.695484 140.497204 140.497204 0 0 1 151.507957-30.389677l-88.086022 88.086022 75.753979 75.313548zM311.824516 805.106237a21.581075 21.581075 0 0 0-30.389677 30.389677 22.021505 22.021505 0 0 0 30.830107 0 20.700215 20.700215 0 0 0 0-29.949247z m0 0" p-id="3200"></path></svg>

<svg class="icon" viewBox="0 0 1024 1024" xmlns="http://www.w3.org/2000/svg" width="200" height="200"><defs><style/></defs><path d="M940.318 1023.56H81.48a61.66 61.66 0 0 1-59.458-61.66V148.424a61.66 61.66 0 0 1 61.66-61.66H942.52a61.66 61.66 0 0 1 61.66 61.66v813.474a61.66 61.66 0 0 1-63.862 61.66zM99.097 944.282H922.7v-778.24H99.097z"/><path d="M266.46 0h55.494q22.022 0 22.022 22.022v217.572q0 22.021-22.022 22.021H266.46q-22.021 0-22.021-22.021V22.022Q244.439 0 266.46 0zM691.0350000000001 0h55.494q22.022 0 22.022 22.022v217.572q0 22.021-22.022 22.021h-55.494q-22.022 0-22.022-22.021V22.022Q669.013 0 691.035 0zM785.727 414.004a137.855 137.855 0 0 1-30.39 152.39 140.057 140.057 0 0 1-167.363 22.02l-36.556 40.52 27.748 27.307 15.415-14.534a22.022 22.022 0 0 1 30.39 0l132.128 132.129a21.14 21.14 0 0 1 0 30.39l-60.779 60.338a22.022 22.022 0 0 1-30.39 0L533.801 732.435a21.14 21.14 0 0 1 0-30.39l16.737-16.295-25.986-25.986L337.37 859.28a44.043 44.043 0 0 1-61.22 0l-14.974-14.974a44.043 44.043 0 0 1 0-60.34L470.82 607.795 330.323 470.82H286.28l-48.888-81.48 40.52-40.96 83.681 51.09v44.043L501.21 584.01l40.96-33.913a137.414 137.414 0 0 1 13.654-179.695 140.497 140.497 0 0 1 151.508-30.39l-88.086 88.086 75.754 75.314zM311.825 805.106a21.581 21.581 0 0 0-30.39 30.39 22.022 22.022 0 0 0 30.83 0 20.7 20.7 0 0 0 0-29.95zm0 0"/></svg>
